X:1
T:Burbank, 87.87 D
T:Burbank, 87.87 D
T:Silas Jones Vail, 1868
T:Public Domain Courtesy of the Cyber Hymnal™
C:Silas Jones Vail, 1868
Z:Public Domain
Z:Courtesy of the Cyber Hymnal™
%%score 1 ( 2 3 )
L:1/8
Q:1/4=108
M:4/4
K:C
V:1 treble 
V:2 bass 
V:3 bass 
V:1
 [EG]>[DF] | [CE]2 [EG]2 [Ec]2 [GB]2 | [Fd]2 [Ac]2 [GB]2 [FA]2 | [EG]3 [FA] [EG]2 [DF]2 | %4
 [CE]6 [EG]>[DF] | [CE]2 [EG]2 [Ec]2 [GB]2 | [Fd]2 [Ac]2 [GB]2 [FA]2 | [EG]3 [EG] [FA]2 [DB]2 | %8
 [Ec]6 [Ec]>[Ec] | [Fd] [Fd]3 [FA]2 [FB]2 | [FA]2 [EG]4 [Ec]>[Ec] | [Fd]2 [Fd]2 [FA]2 [FB]2 | %12
 [Ec]6 [EG]>[DF] | [CE]2 [EG]2 [Ec]2 [GB]2 | [Fd]2 [Ac]2 [GB]2 [FA]2 | [EG]3 [EG] [FA]2 [DB]2 | %16
 [Ec]6 |] %17
V:2
 [C,G,]>[C,G,] | [C,G,]2 [C,G,]2 [C,G,]2 [C,C]2 | [F,A,]2 [F,C]2 [F,C]2 [F,C]2 | %3
 [G,C]3 [G,C] [G,C]2 [G,,G,]2 | [C,G,]6 [C,G,]>[C,G,] | [C,G,]2 [C,G,]2 [C,G,]2 [C,C]2 | %6
 [F,A,]2 [F,C]2 [F,C]2 [F,C]2 | [G,C]3 [G,C] G,2 G,2 | [C,G,]6 [C,G,]>[C,G,] | %9
 [G,B,] [G,B,]3 [G,D]2 [G,D]2 | [C,C]2 [C,C]4 [C,G,]>[C,G,] | [G,B,]2 [G,B,]2 [G,D]2 [G,,D]2 | %12
 [C,C]6 [C,G,]>[C,G,] | [C,G,]2 [C,G,]2 [C,G,]2 [C,C]2 | [F,A,]2 [F,C]2 [F,C]2 [F,C]2 | %15
 [G,C]3 [G,C] G,2 G,2 | [C,G,]6 |] %17
V:3
 x2 | x8 | x8 | x8 | x8 | x8 | x8 | x4 G,2 G,2 | x8 | x8 | x8 | x8 | x8 | x8 | x8 | x4 G,2 G,2 | %16
 x6 |] %17

